X:1
T:Title
%%score ( 1 2 ) 3
L:1/8
Q:1/4=120
M:3/4
K:G
V:1 treble nm="Church Organ, Unnamed-000"
V:2 treble 
V:3 bass nm="Church Organ, Unnamed-001"
V:1
 DD [DG]2 [DG]2 | [DF][EG] [FA]2 [FA]2 | [GB][Gc] [DGd]2 [EGc]2 | [DFB][CFA] [B,DG]4 | %4
w: By~Polish~carol * * *||||
 DD [DG]2 [DG]2 | [DF][EG] [FA]2 [FA]2 | [GB][Gc] [DGd]2 [EGc]2 | [DFB][CFA] [B,DG]4 | .G2 z2 z2 | %9
w: |||||
 .A2 z2 z2 | .B2 z2 z2 | .c2 z2 z2 | [EB][Ec] [DGd]2 [EGc]2 | [DFB][CFA] [B,DG]4- | [B,DG]4 z2 |] %15
w: ||||||
V:2
 x6 | x6 | x6 | x6 | x6 | x6 | x6 | x6 | D-[DF] [CE]2 [CE]2 | C-[CG] [DF]2 [DF]2 | %10
 D-[DA] [EG]2 [EG]2 | E-[EB] [FA]2 [FA]2 | x6 | x6 | x6 |] %15
V:3
 D,D, [G,B,]2 [G,B,]2 | D,2 D2 D2 | [G,D][E,C] B,,2 C,2 | D,2 G,4 | D,D, [G,B,]2 [G,B,]2 | %5
 D,2 D2 D2 | [G,D][E,C] B,,2 C,2 | D,2 G,4 | [B,,G,]2 [C,G,]2 [C,G,]2 | [A,,A,]2 [D,A,]2 [D,A,]2 | %10
 [B,,B,]2 [E,B,]2 [E,B,]2 | [A,,A,]2 [D,A,]2 [D,A,]2 | [E,G,][C,G,] B,,2 C,2 | D,2 G,,4- | %14
 G,,4 z2 |] %15

